X:295
T: Glen Cottage
T: Teach\'in an Ghleanna (2)
S: B.Breathnach:"Ceol Rince na hEireann" III/78
Z: B.Black
L: 1/8
M: 2/4
Q: 275
R: polka
K: Ador
d2|: eA Bd|e/f/e/d/ Bd|eA BA|G>A Bd|
eA Bd|e/f/e/d/ Bd|ea e/f/e/d/|1 BA A/B/c/d/ :|2\
BA A2 ||
e2 ef/g/|ae fe|d2 de/f/|ge fd|
e2 ef/g/|ae fd|ea e/f/e/d/|BA A2 :|
